packages/vibrant-icons/assets/icons/Text/Fill.svg

<svg width="24" height="24" viewBox="0 0 24 24" fill="none" xmlns="http://www.w3.org/2000/svg">
<path d="M10.7993 5.0504H5.04993V6.6509C5.04993 6.76136 4.96043 6.8509 4.84998 6.8509H2.84998C2.73952 6.8509 2.6499 6.76136 2.6499 6.6509V2.8499C2.6499 2.73944 2.98952 2.6499 2.84998 2.6499H21.1493C21.2598 2.6499 21.3494 2.73944 21.3494 2.8499V6.6509C21.3494 6.76136 21.2598 6.8509 21.1493 6.8509H19.1493C19.0388 6.8509 18.9493 6.76136 18.9493 6.6509V5.0504H13.2V18.9499H14.6493C14.7597 18.9499 14.85 19.0394 14.85 19.1499V21.1504C14.85 21.2609 14.7604 21.3504 14.6499 21.3504H9.34998C9.23952 21.3504 9.14929 21.2609 9.14929 21.1504V19.1499C9.14929 19.0394 9.23891 18.9499 9.34937 18.9499H10.7993V5.0504Z" fill="#0C0C0C"/>
</svg>

<svg xmlns="http://www.w3.org/2000/svg" width="24" height="24" fill="none"><path fill="#0C0C0C" d="M10.8 5.05H5.05v1.6a.2.2 0 0 1-.2.2h-2a.2.2 0 0 1-.2-.2v-3.8c0-.11.34-.2.2-.2h18.3c.11 0 .2.09.2.2v3.8a.2.2 0 0 1-.2.2h-2a.2.2 0 0 1-.2-.2v-1.6H13.2v13.9h1.45c.11 0 .2.09.2.2v2a.2.2 0 0 1-.2.2h-5.3a.2.2 0 0 1-.2-.2v-2a.2.2 0 0 1 .2-.2h1.45z"/></svg>
